modules/entypo/icons/dropbox.svg

<svg height="1000" width="960" xmlns="http://www.w3.org/2000/svg"><path d="M286 44l194 158-284 184L0 222 286 44m368 754c5.333 0 9.333-.667 12-2l116-78v46L480 954 178 764v-46l118 78c2.667 1.333 6.667 2 12 2 6.667 0 11.333-1.333 14-4l158-132 160 132c2.667 2.667 7.333 4 14 4m306-576L766 386 480 202 676 44l284 178M480 564l286-178 174 140-282 184-178-146M304 710L22 526l174-140 284 178-176 146"/></svg>

<svg height="1000px" width="960px" xmlns="http://www.w3.org/2000/svg">
  <g>
    <path d="M286 44c0 0 194 158 194 158c0 0 -284 184 -284 184c0 0 -196 -164 -196 -164c0 0 286 -178 286 -178m368 754c5.333 0 9.333 -0.667 12 -2c0 0 116 -78 116 -78c0 0 0 46 0 46c0 0 -302 190 -302 190c0 0 -302 -190 -302 -190c0 0 0 -46 0 -46c0 0 118 78 118 78c2.667 1.333 6.667 2 12 2c6.667 0 11.333 -1.333 14 -4c0 0 158 -132 158 -132c0 0 160 132 160 132c2.667 2.667 7.333 4 14 4c0 0 0 0 0 0m306 -576c0 0 -194 164 -194 164c0 0 -286 -184 -286 -184c0 0 196 -158 196 -158c0 0 284 178 284 178m-480 342c0 0 286 -178 286 -178c0 0 174 140 174 140c0 0 -282 184 -282 184c0 0 -178 -146 -178 -146m-176 146c0 0 -282 -184 -282 -184c0 0 174 -140 174 -140c0 0 284 178 284 178c0 0 -176 146 -176 146" />
  </g>
</svg>
